X:1
T:Title
%%score { ( 1 3 ) | 2 }
L:1/8
Q:1/4=100
M:6/8
K:F
V:1 treble nm="Grand Piano"
V:3 treble 
V:2 bass 
V:1
 A3 _A2 =A | B3 .A3 | [CF]3 [EG]2 [EG] | A6 | c3 =B2 c | d3 .c3 | A3 G2 F | [EG]6 | G3 A2 B | %9
w: James~N.~Clemmer * *|||||||||
 d3 .c3 | [Ec]3 [EG]2 [E_A] | A6 | f3 e2 d | c A2- A2 F | [EG]3 [FA]2 G | F6 | .c6 | d3 c3 | .c6 | %19
w: ||||||||||
 [FA]6 | .f6 | c3 A2 F | [EG]3 [FA]2 G | F6 |] %24
w: |||||
V:2
 [F,CF]3 [F,=B,F]2 [F,CF] | [F,DF]3 .[F,CF]3 | A,,3 [C,C]2 [C,C] | [F,CF]6 | %4
 [F,A,F]3 [F,_A,F]2 [F,=A,F] | [F,B,F]3 .[F,A,F]3 | [F,CF]3 [E,C]2 [D,=B,D] | [C,C]6 | %8
 [B,CE]3 [A,CF]2 [G,CE] | [F,B,F]3 .[F,A,F]3 | [C,G,]3 [C,C]2 [C,C] | [F,CF]6 | %12
 [F,DF]3 [F,CF]2 [F,B,F] | [F,A,F] [F,CF]2- [F,CF]2 [D,=B,] | [C,C]3 [C,C]2 [C,B,C] | [F,A,C]6 | %16
 [F,A,F]2 [F,A,] [F,A,][F,_A,F][F,=A,F] | [F,B,F]3 [F,A,F]3 | [C,G,]2 [C,G,] [C,G,][C,C][C,C] | %19
 [F,C]6 | [F,C]2 [F,C] [F,C][F,CF][F,B,F] | [F,A,F]3 [F,CF]2 [D,=B,] | [C,C]3 [C,C]2 [C,B,C] | %23
 [F,A,C]6 |] %24
V:3
 x6 | x6 | x6 | x6 | x6 | x6 | x6 | x6 | x6 | x6 | x6 | x6 | x6 | x6 | x6 | x6 | z2 F F=Bc | x6 | %18
 E2 E E[EG][GB] | x6 | A2 A AAd | x6 | x6 | x6 |] %24

